X: 3
T:Dennis Murphy's
% Nottingham Music Database
S:via PR
M:4/4
L:1/4
K:D
d/2e/2|:"D"f/2g/2f/2e/2 d3/2B/2|AD FA|"Em"GE e3/2d/2|"A7"cB c/2B/2A|
"D"f/2g/2f/2e/2 d3/2B/2|"D"AD FA|"Em"GE "A7"e3/2f/2|"D"ed d2::
"D"Af f/2e/2f|"G"Bg g/2f/2g|"D"Af f/2e/2d|"A7"e/2f/2e/2d/2 BA|
"D"Af f/2e/2f|"G"Bg g3/2a/2|"A7"ba gc|"D"ed d2:|<end>
<start>
